X:2520
T:The Cream Pot
T:The Kern Staff
C:anon.
O:England
S:William Vickers c1770
F:http://abc.musicaviva.com/tunes/england/the-cream-pot/the-cream-pot.abc
%Posted at abcusers Jan 2nd 2001 by Johnny Adams.
M:6/8
L:1/8
K:G
G2 A B2 c | dBd efg | G2 A B2 c | dBG AFD | E2 C CEG | F2 D D2 c|
BdB cAF | G3 A3 ::\
K:D
d2 e f2 g | afd ecA | faf ege | fdf ecA | B2 G GBd |
c2 A A2 g | faf ge c |1d3-d2 A :|2 d3 =c3 |:\
K:G
B2 g gdB | B2 g gdB |
A2 A ABc | BAG AFD | E2 C CEG | F2 D D2 c | BdB c AF | G6 :|
W:
W:
W:  From Musica Viva - http://www.musicaviva.com
W:  the Internet center for free sheet music downloads.
